X:1
T:Title
%%score { ( 1 2 ) | ( 3 4 ) }
L:1/8
M:4/4
K:Eb
V:1 treble nm="Grand Piano"
V:2 treble 
V:3 bass 
V:4 bass 
V:1
 z4 z2[Q:1/4=100] z z/ F/ | G>_G =G>_G =G2 B2 | [DA]6 [DF]2 | A2 A>G A2 c2 |[M:3/4] B6 | %5
[M:1/4] z z/ F/ |[M:4/4] G>_G =G>_G =G2 B2 | A6 B>B | =A>B [Ec]>e d2 c2 |[M:3/4] [DB]6 | %10
[M:1/4] c>d |[M:4/4] e>d c>B G2 B2 | z z/ F/ A>F c2 c2 | z z/ F/ A>F c2 d2 |[M:3/4] B6 | %15
[M:1/4] c>d |[M:4/4] e>d c>B G2 B2 | z z/ F/ A>F c2 B>B | =A>B [Ec]>e d2 c2 | %19
[M:3/4] d2- [Bd-]2 [=Ad]2 |[M:1/4] c>d |[M:4/4] e>d c>B G2 B2 | z z/ F/ A>F c2 c2 | %23
 z z/ F/ A>F c2 d2 |[M:3/4] B6 |[M:1/4] c>d |[M:4/4] e>e d>d [EGc]2 B>B | %27
 [CFA]2 [C=EG]2 [C_EF]2 [E_Gc]2 | [EGB]2 e2- [B,-F-_A-e]2 [B,FA]2 |[M:3/4] e2- [Ae-]2 [Ge]2 |] %30
V:2
 z4 z2 E2 | x8 | B,8 | [B,D]8 |[M:3/4] z2 D2 E2 |[M:1/4] E2 |[M:4/4] x8 | [B,D]8 | x8 |[M:3/4] x6 | %10
[M:1/4] A2 |[M:4/4] G4 z4 | D8 | D8 |[M:3/4] z2 D2 E2 |[M:1/4] A2 |[M:4/4] G4 z4 | D6 [B,D]2 | x8 | %19
[M:3/4] F2 z2 z2 |[M:1/4] A2 |[M:4/4] G4 z4 | D8 | D8 |[M:3/4] z2 D2 E2 |[M:1/4] A2 | %26
[M:4/4] [EG]2 [FG]2 z2 [_DG]2 | x8 | z2 [E=A]2 z4 |[M:3/4] G2 z2 z2 |] %30
V:3
 z4 z2 G,>A, | [E,B,E]4 [=E,B,_D]4 | F,2 D,2 B,,2 z z/ G/ | z z/ G/ D,2 F,2 A,2 | %4
[M:3/4] [G,B,E]2 [F,A,]2 [E,G,]2 |[M:1/4] G,>A, |[M:4/4] [E,B,E]4 [=E,B,_D]4 | F,2 D,2 B,,2 B,,2 | %8
 [F,E]->[F,-B,E] F,->[F,G] [F,B,F]2 [F,=A,E]2 |[M:3/4] [B,,F,]6 |[M:1/4] [B,,B,]2 | %11
[M:4/4] E,2- [E,-E]2 [E,E]2- [E,G,E]2 | B,2 z2 z4 | B,2 z2 z4 |[M:3/4] [G,B,E]2 [F,A,]2 [E,G,]2 | %15
[M:1/4] [B,,B,]2 |[M:4/4] E,2- [E,-E]2 [E,E]2- [E,G,E]2 | B,2 z2 z4 | %18
 [F,E]->[F,-B,E] F,->[F,G] [F,B,F]2 [F,=A,E]2 |[M:3/4] [B,,B,]6 |[M:1/4] [B,,B,]2 | %21
[M:4/4] E,2- [E,-E]2 [E,E]2- [E,G,E]2 | B,2 z2 z4 | B,2 z2 z4 |[M:3/4] [G,B,E]2 [F,A,]2 [E,G,]2 | %25
[M:1/4] [B,,B,]2 |[M:4/4] [C,,C,]2 [D,,D,]2 [E,,E,]2 [=E,,=E,]2 | %27
 [F,,F,]2 [G,,G,]2 [A,,A,]2 [=A,,=A,]2 | [B,,B,]2 [=B,,_G,]2 z2[K:treble] d2 |[M:3/4] B,2 C2 B,2 |] %30
V:4
 z4 z2 E,2 | x8 | z4 z2 B,,2 | B,,2 z2 z4 |[M:3/4] x6 |[M:1/4] E,2 |[M:4/4] x8 | x8 | C2 =A,2 z4 | %9
[M:3/4] x6 |[M:1/4] x2 |[M:4/4] B,2 z2 B,2 z2 | B,,2- [B,,-A,]2 [B,,F,]2 [B,,A,]2 | %13
 B,,2- [B,,-A,]2 [B,,F,]2 [B,,A,]2 |[M:3/4] x6 |[M:1/4] x2 |[M:4/4] B,2 z2 B,2 z2 | %17
 B,,2- [B,,-A,]2 [B,,F,]2 B,,2 | C2 =A,2 z4 |[M:3/4] x6 |[M:1/4] x2 |[M:4/4] B,2 z2 B,2 z2 | %22
 B,,2- [B,,-A,]2 [B,,F,]2 [B,,A,]2 | B,,2- [B,,-A,]2 [B,,F,]2 [B,,A,]2 |[M:3/4] x6 |[M:1/4] x2 | %26
[M:4/4] x8 | x8 | z4 _B,,4[K:treble] |[M:3/4] E,6 |] %30

